X:1
P: John of Badenyon [2X]
C: a.k.a. Old Time Wedding Reel #1, Cape Breton
C: Dunlay/Greenberg Collection
C: Arr. T. Traub 7-10-03
R: reel
M: 4/4
K: Am
L: 1/8
B |"Am"AGEG AGEA|"Am"cdcA "G"G2 GB|"Am"A/A/A cd edcG|"Am"ABcd "Em"e2 eg|"Am"abag egdB|
"C"cAGE c2 cd|"C"edcA GEcE|"Em"D/D/D EG "Am"A4||"Am"ageg agea|"G"gede g2 gb|
"Am"agea gbed|"Am"cAcd "Em"e2 eg|"Am"abag egdB|"C"cAGE c2 cd|"C"edcA GEcE|"Em"D/D/D EG "Am" A4 |]
